_includes/icons/ios-slack.svg

<svg fill="#666" height="50" viewBox="0 0 50 50" width="50" xmlns="http://www.w3.org/2000/svg"><path d="m27.960938 3.015625c-.597657-.046875-1.207032.027344-1.796875.226563-2.492188.804687-3.707032 3.507812-2.921875 5.886718l1.117187 3.398438-5.285156 1.929687-1.070313-3.25c-.589843-1.886718-2.25-3.058593-4.042968-3.191406-.59375-.042969-1.203125.03125-1.789063.226563-2.5.804687-3.714844 3.507812-2.929687 5.894531l1.148437 3.492187-3.335937 1.21875c-2.355469.832032-3.597657 3.496094-2.835938 5.910157.628906 1.992187 2.410156 3.242187 4.269531 3.242187.578125 0 1.070313-.140625 1.433594-.269531h.007813l3.382812-1.238281 1.625 4.933593-3.863281 1.414063c-2.449219.816406-3.59375 3.53125-2.84375 5.914062.617187 1.957032 2.335937 3.246094 4.261719 3.246094.535156 0 .957031-.140625 1.359375-.246094l.042968-.007812 3.96875-1.433594 1.152344 3.484375v.011719c.667969 1.882812 2.4375 3.191406 4.375 3.191406.582031 0 1.085938-.136719 1.460938-.261719 2.402343-.808593 3.714843-3.472656 2.917968-5.890625l-1.210937-3.675781 5.289062-1.910156 1.167969 3.535156v.007813c.667969 1.882812 2.4375 3.191406 4.375 3.191406.582031 0 1.085938-.136719 1.460938-.261719 2.402343-.8125 3.714843-3.476562 2.917968-5.890625l-1.226562-3.722656 2.488281-.898438.015625-.007812c2.300781-.945313 3.546875-3.601563 2.671875-6.023438-.582031-1.796875-2.164062-3.019531-3.910156-3.175781-.585938-.050781-1.1875.019531-1.777344.226563l-.003906.003906-2.445313.894531-1.617187-4.921875 2.957031-1.078125c2.449219-.816406 3.597656-3.523437 2.847656-5.90625-.5625-1.882812-2.183593-3.078125-3.9375-3.210937-.585937-.046875-1.183593.023437-1.765625.226562l-.003906.003906-3.019531 1.101563-1.039063-3.152344c-.589843-1.886719-2.25-3.058594-4.042968-3.1875zm-.132813 1.976563c1.011719.058593 1.921875.695312 2.265625 1.804687l.003906.007813 1.066407 3.238281-4.921875 1.796875-1.101563-3.335938c-.460937-1.402343.195313-2.902343 1.640625-3.363281h.011719l.003906-.003906c.34375-.117188.691406-.160156 1.03125-.144531zm9.875 5.003906c.953125.050781 1.816406.683594 2.15625 1.816406v.015625c.453125 1.429688-.203125 2.957031-1.570312 3.414063l-.011719.003906-2.941406 1.074219-1.667969-5.0625 3.0625-1.117188c.324219-.117187.652344-.160156.972656-.144531zm-23.875.003906c1.011719.054688 1.921875.695313 2.265625 1.804688l.003906.007812 1.097657 3.332031-4.921875 1.796875-1.132813-3.433593c-.460937-1.402344.195313-2.898438 1.640625-3.363282h.011719l.003906-.003906c.34375-.117187.691406-.160156 1.03125-.140625zm17.960938 1.941406 1.667968 5.0625-4.921875 1.800782-1.667968-5.066407zm-6.800782 2.484375 1.667969 5.0625-5.285156 1.933594-1.667969-5.0625zm-7.164062 2.621094 1.664062 5.0625-4.921875 1.796875-1.664062-5.0625zm16.257812 1.859375 1.621094 4.921875-4.921875 1.796875-1.621094-4.921875zm-23.0625.625 1.667969 5.0625-3.429687 1.25c-.234375.085938-.542969.15625-.769532.15625-.953125 0-1.984375-.65625-2.359375-1.84375-.441406-1.402344.328125-2.976562 1.589844-3.421875zm16.261719 1.859375 1.621094 4.921875-5.285156 1.9375-1.621094-4.925781zm-7.167969 2.617188 1.625 4.929687-4.921875 1.800781-1.625-4.929687zm21.542969 0c.949219.085937 1.835938.757812 2.167969 1.808593l.003906.027344.007813.019531c.511718 1.394532-.242188 2.960938-1.542969 3.5h-.003906l-2.371094.855469-1.710938-5.179687 2.492188-.910157c.3125-.109375.636719-.148437.957031-.121093zm-5.328125 1.71875 1.707031 5.175781-4.929687 1.78125-1.699219-5.15625zm-6.796875 2.488281 1.691406 5.144531-5.289062 1.910156-1.6875-5.117187zm-7.167969 2.625 1.683594 5.113281-4.925781 1.777344-1.679688-5.089844zm16.296875 1.960937 1.210938 3.667969c.449219 1.371094-.320313 2.917969-1.65625 3.371094-.25.082031-.578125.15625-.824219.15625-.972656 0-2.109375-.792969-2.484375-1.855469l-1.175781-3.5625zm-23.097656.527344 1.675781 5.082031-3.917968 1.414063c-.390625.101562-.761719.175781-.828125.175781-1.082032 0-1.96875-.617187-2.355469-1.84375h.003906c-.453125-1.433594.203125-2.964844 1.566406-3.417969l.011719-.003906zm9.113281 4.523438 1.195313 3.625c.449219 1.367187-.320313 2.914062-1.65625 3.367187-.25.082031-.578125.15625-.824219.15625-.972656 0-2.109375-.796875-2.484375-1.855469 0 0-.003906-.003906-.003906-.003906l-1.15625-3.511719z"/></svg>

<svg xmlns="http://www.w3.org/2000/svg" viewBox="0 0 50 50" width="50" height="50" fill="#666"><path d="M 27.960938 3.015625 C 27.363281 2.96875 26.753906 3.042969 26.164063 3.242188 C 23.671875 4.046875 22.457031 6.75 23.242188 9.128906 L 24.359375 12.527344 L 19.074219 14.457031 L 18.003906 11.207031 C 17.414063 9.320313 15.753906 8.148438 13.960938 8.015625 C 13.367188 7.972656 12.757813 8.046875 12.171875 8.242188 C 9.671875 9.046875 8.457031 11.75 9.242188 14.136719 L 10.390625 17.628906 L 7.054688 18.847656 C 4.699219 19.679688 3.457031 22.34375 4.21875 24.757813 C 4.847656 26.75 6.628906 28 8.488281 28 C 9.066406 28 9.558594 27.859375 9.921875 27.730469 L 9.929688 27.730469 L 13.3125 26.492188 L 14.9375 31.425781 L 11.074219 32.839844 C 8.625 33.65625 7.480469 36.371094 8.230469 38.753906 C 8.847656 40.710938 10.566406 42 12.492188 42 C 13.027344 42 13.449219 41.859375 13.851563 41.753906 L 13.894531 41.746094 L 17.863281 40.3125 L 19.015625 43.796875 L 19.015625 43.808594 C 19.683594 45.691406 21.453125 47 23.390625 47 C 23.972656 47 24.476563 46.863281 24.851563 46.738281 C 27.253906 45.929688 28.566406 43.265625 27.769531 40.847656 L 26.558594 37.171875 L 31.847656 35.261719 L 33.015625 38.796875 L 33.015625 38.804688 C 33.683594 40.6875 35.453125 41.996094 37.390625 41.996094 C 37.972656 41.996094 38.476563 41.859375 38.851563 41.734375 C 41.253906 40.921875 42.566406 38.257813 41.769531 35.84375 L 40.542969 32.121094 L 43.03125 31.222656 L 43.046875 31.214844 C 45.347656 30.269531 46.59375 27.613281 45.71875 25.191406 C 45.136719 23.394531 43.554688 22.171875 41.808594 22.015625 C 41.222656 21.964844 40.621094 22.035156 40.03125 22.242188 L 40.027344 22.246094 L 37.582031 23.140625 L 35.964844 18.21875 L 38.921875 17.140625 C 41.371094 16.324219 42.519531 13.617188 41.769531 11.234375 C 41.207031 9.351563 39.585938 8.15625 37.832031 8.023438 C 37.246094 7.976563 36.648438 8.046875 36.066406 8.25 L 36.0625 8.253906 L 33.042969 9.355469 L 32.003906 6.203125 C 31.414063 4.316406 29.753906 3.144531 27.960938 3.015625 Z M 27.828125 4.992188 C 28.839844 5.050781 29.75 5.6875 30.09375 6.796875 L 30.097656 6.804688 L 31.164063 10.042969 L 26.242188 11.839844 L 25.140625 8.503906 C 24.679688 7.101563 25.335938 5.601563 26.78125 5.140625 L 26.792969 5.140625 L 26.796875 5.136719 C 27.140625 5.019531 27.488281 4.976563 27.828125 4.992188 Z M 37.703125 9.996094 C 38.65625 10.046875 39.519531 10.679688 39.859375 11.8125 L 39.859375 11.828125 C 40.3125 13.257813 39.65625 14.785156 38.289063 15.242188 L 38.277344 15.246094 L 35.335938 16.320313 L 33.667969 11.257813 L 36.730469 10.140625 C 37.054688 10.023438 37.382813 9.980469 37.703125 9.996094 Z M 13.828125 10 C 14.839844 10.054688 15.75 10.695313 16.09375 11.804688 L 16.097656 11.8125 L 17.195313 15.144531 L 12.273438 16.941406 L 11.140625 13.507813 C 10.679688 12.105469 11.335938 10.609375 12.78125 10.144531 L 12.792969 10.144531 L 12.796875 10.140625 C 13.140625 10.023438 13.488281 9.980469 13.828125 10 Z M 31.789063 11.941406 L 33.457031 17.003906 L 28.535156 18.804688 L 26.867188 13.738281 Z M 24.988281 14.425781 L 26.65625 19.488281 L 21.371094 21.421875 L 19.703125 16.359375 Z M 17.824219 17.046875 L 19.488281 22.109375 L 14.566406 23.90625 L 12.902344 18.84375 Z M 34.082031 18.90625 L 35.703125 23.828125 L 30.78125 25.625 L 29.160156 20.703125 Z M 11.019531 19.53125 L 12.6875 24.59375 L 9.257813 25.84375 C 9.023438 25.929688 8.714844 26 8.488281 26 C 7.535156 26 6.503906 25.34375 6.128906 24.15625 C 5.6875 22.753906 6.457031 21.179688 7.71875 20.734375 Z M 27.28125 21.390625 L 28.902344 26.3125 L 23.617188 28.25 L 21.996094 23.324219 Z M 20.113281 24.007813 L 21.738281 28.9375 L 16.816406 30.738281 L 15.191406 25.808594 Z M 41.65625 24.007813 C 42.605469 24.09375 43.492188 24.765625 43.824219 25.816406 L 43.828125 25.84375 L 43.835938 25.863281 C 44.347656 27.257813 43.59375 28.824219 42.292969 29.363281 C 42.292969 29.363281 42.289063 29.363281 42.289063 29.363281 L 39.917969 30.21875 L 38.207031 25.039063 L 40.699219 24.128906 C 41.011719 24.019531 41.335938 23.980469 41.65625 24.007813 Z M 36.328125 25.726563 L 38.035156 30.902344 L 33.105469 32.683594 L 31.40625 27.527344 Z M 29.53125 28.214844 L 31.222656 33.359375 L 25.933594 35.269531 L 24.246094 30.152344 Z M 22.363281 30.839844 L 24.046875 35.953125 L 19.121094 37.730469 L 17.441406 32.640625 Z M 38.660156 32.800781 L 39.871094 36.46875 C 40.320313 37.839844 39.550781 39.386719 38.214844 39.839844 C 37.964844 39.921875 37.636719 39.996094 37.390625 39.996094 C 36.417969 39.996094 35.28125 39.203125 34.90625 38.140625 L 33.730469 34.578125 Z M 15.5625 33.328125 L 17.238281 38.410156 L 13.320313 39.824219 C 12.929688 39.925781 12.558594 40 12.492188 40 C 11.410156 40 10.523438 39.382813 10.136719 38.15625 L 10.140625 38.15625 C 9.6875 36.722656 10.34375 35.191406 11.707031 34.738281 L 11.71875 34.734375 Z M 24.675781 37.851563 L 25.871094 41.476563 C 26.320313 42.84375 25.550781 44.390625 24.214844 44.84375 C 23.964844 44.925781 23.636719 45 23.390625 45 C 22.417969 45 21.28125 44.203125 20.90625 43.144531 C 20.90625 43.144531 20.902344 43.140625 20.902344 43.140625 L 19.746094 39.628906 Z"/></svg>
